X: 14
T: Music In The Glen
Z: luddite
S: https://thesession.org/tunes/303#setting51190
R: reel
M: 4/4
L: 1/8
K: Gmaj
|:"G"G2BG EGDC|"Bm"B,DGB AGAB|"C"c2ec BcdB|"D"BAAG AGEF|
"G"GABG EGDC|"Bm"B,DGB AGAB|"C"cdef g2ge|"D"dcBA G3 F :|
|:"G"BGdG eGdG|"Bm"BGdB cAEA |"C"BGdG edef|"D"gedB AGEG|
"G"B/A/G dG edef|"Bm"~g2fg afdf| "C"~g2fg egdB | "D"cABG AGEG:|

